Sources/FrostedUI/Resources/Icons.xcassets/youTube12.imageset/youtube-12.svg

<svg width="12" height="12" viewBox="0 0 12 12" fill="none" xmlns="http://www.w3.org/2000/svg" data-fui-icon="true">
  <path
    d="M10.3242 10.7129C10.0314 10.8037 9.59543 10.8554 9.17871 10.8906C8.73817 10.9278 8.23679 10.9517 7.76953 10.9678C7.30093 10.9839 6.85926 10.9921 6.53516 10.9961C6.37288 10.9981 6.23937 10.9985 6.14648 10.999C6.10021 10.9993 6.06394 10.9999 6.03906 11H5.96094C5.93606 10.9999 5.89979 10.9993 5.85352 10.999C5.76063 10.9985 5.62711 10.9981 5.46484 10.9961C5.14074 10.9921 4.69907 10.9839 4.23047 10.9678C3.76321 10.9517 3.26184 10.9278 2.82129 10.8906C2.40457 10.8554 1.9686 10.8037 1.67578 10.7129L2.12012 9.2793C2.23656 9.31542 2.51821 9.35929 2.94727 9.39551C3.35241 9.42971 3.82553 9.45308 4.28125 9.46875C4.73571 9.48437 5.16633 9.49217 5.4834 9.49609C5.64173 9.49805 5.77145 9.49951 5.86133 9.5H6.13867C6.22855 9.49951 6.35827 9.49805 6.5166 9.49609C6.83367 9.49217 7.26428 9.48437 7.71875 9.46875C8.17447 9.45308 8.64759 9.42971 9.05273 9.39551C9.48178 9.35929 9.76345 9.31541 9.87988 9.2793L10.3242 10.7129ZM1.7002 8.75391C1.77069 9.05789 1.96068 9.23002 2.11914 9.2793L1.67578 10.7129C0.930455 10.4821 0.410788 9.83266 0.239258 9.0918L0.969727 8.92285L1.7002 8.75293V8.75391ZM6.14648 1.00098C6.23937 1.00148 6.37288 1.0019 6.53516 1.00391C6.85926 1.00792 7.30093 1.01612 7.76953 1.03223C8.23679 1.04829 8.73816 1.0722 9.17871 1.10938C9.59544 1.14455 10.0314 1.19633 10.3242 1.28711L10.4609 1.33594C11.1329 1.60009 11.5999 2.2136 11.7607 2.9082C11.8873 3.4561 11.9442 4.25063 11.9717 4.86035C11.9858 5.17478 11.9925 5.45823 11.9961 5.66309C11.9979 5.76572 11.9986 5.84926 11.999 5.90723C11.9993 5.9362 11.9999 5.95896 12 5.97461V6.09277C11.9996 6.15066 11.9978 6.23366 11.9961 6.33594C11.9926 6.54088 11.9858 6.82498 11.9717 7.13965C11.9444 7.74928 11.8879 8.54348 11.7607 9.0918C11.5892 9.83267 11.0695 10.4821 10.3242 10.7129L9.88086 9.2793C10.0393 9.23002 10.2293 9.05788 10.2998 8.75391V8.75293C10.3921 8.35477 10.4461 7.68797 10.4736 7.07324C10.487 6.77568 10.4937 6.50564 10.4971 6.31055C10.4987 6.21325 10.4996 6.13481 10.5 6.08105V5.91895C10.4996 5.86516 10.4978 5.78666 10.4961 5.68945C10.4927 5.49442 10.486 5.22514 10.4727 4.92773C10.445 4.31278 10.3919 3.64475 10.2998 3.24609C10.2381 2.97994 10.085 2.81423 9.94141 2.74414L9.87988 2.7207V2.71973C9.76332 2.68362 9.48153 2.64069 9.05273 2.60449C8.64759 2.57029 8.17447 2.54692 7.71875 2.53125C7.26428 2.51563 6.83367 2.50783 6.5166 2.50391C6.35827 2.50195 6.22855 2.50049 6.13867 2.5H5.86133C5.77145 2.50049 5.64173 2.50195 5.4834 2.50391C5.16633 2.50783 4.73571 2.51563 4.28125 2.53125C3.82553 2.54692 3.35241 2.57029 2.94727 2.60449C2.51849 2.64069 2.2367 2.68362 2.12012 2.71973L1.67578 1.28711C1.9686 1.19633 2.40456 1.14455 2.82129 1.10938C3.26184 1.07219 3.76321 1.04829 4.23047 1.03223C4.69907 1.01612 5.14074 1.00792 5.46484 1.00391C5.62711 1.0019 5.76063 1.00148 5.85352 1.00098C5.89979 1.00073 5.93606 1.00006 5.96094 1H6.03906C6.06394 1.00006 6.10021 1.00073 6.14648 1.00098ZM1.7002 3.24707C1.60788 3.64523 1.55393 4.31203 1.52637 4.92676C1.51303 5.22431 1.50627 5.49436 1.50293 5.68945C1.50126 5.78675 1.50041 5.86519 1.5 5.91895V6.08105C1.50041 6.13481 1.50126 6.21325 1.50293 6.31055C1.50627 6.50564 1.51303 6.77568 1.52637 7.07324C1.55393 7.68797 1.60789 8.35477 1.7002 8.75293L0.239258 9.0918C0.112118 8.54348 0.0556414 7.74928 0.0283203 7.13965C0.0142218 6.82498 0.00742041 6.54088 0.00390625 6.33594C0.00215401 6.23366 0.000444845 6.15065 0 6.09277V5.90723C0.000444856 5.84934 0.00215403 5.76634 0.00390625 5.66406C0.00742046 5.45912 0.0142214 5.17502 0.0283203 4.86035C0.0556419 4.25071 0.112114 3.45652 0.239258 2.9082L1.7002 3.24707ZM5.04004 4.7832C5.04004 4.59076 5.24838 4.47021 5.41504 4.56641L7.52246 5.7832C7.68914 5.87943 7.68914 6.12057 7.52246 6.2168L5.41504 7.43359C5.24837 7.52979 5.04004 7.40924 5.04004 7.2168V4.7832ZM2.11914 2.7207C1.96065 2.77003 1.77068 2.94216 1.7002 3.24609V3.24707L0.969727 3.07715L0.239258 2.9082C0.410797 2.16734 0.930482 1.51789 1.67578 1.28711L2.11914 2.7207Z"
    fill="currentColor"
  />
</svg>

<svg xmlns="http://www.w3.org/2000/svg" width="12" height="12" fill="none" data-fui-icon="true" viewBox="0 0 12 12"><path fill="currentColor" d="M10.324 10.713c-.293.09-.729.142-1.145.178-.44.037-.942.06-1.41.077a57 57 0 0 1-1.234.028L6.146 11 6.04 11h-.078l-.107-.001c-.093 0-.227 0-.39-.003a57 57 0 0 1-1.234-.028c-.467-.016-.968-.04-1.409-.077-.416-.036-.852-.087-1.145-.178l.444-1.434c.117.036.398.08.827.117.405.034.879.057 1.334.073a56 56 0 0 0 1.58.031h.278a61 61 0 0 0 1.58-.031c.455-.016.929-.04 1.334-.073.429-.037.71-.08.827-.117zM1.7 8.753c.07.305.26.477.42.526l-.444 1.434C.93 10.483.41 9.833.239 9.092l.73-.17zm4.446-7.752c.093 0 .227 0 .39.003.323.004.765.012 1.234.028.467.016.968.04 1.409.077.416.036.852.087 1.145.178l.137.049c.672.264 1.139.878 1.3 1.572.126.548.183 1.343.21 1.952A30 30 0 0 1 12 5.907l.001.068v.118l-.004.243c-.003.205-.01.489-.024.804-.028.61-.084 1.403-.211 1.952-.172.74-.691 1.39-1.437 1.62L9.881 9.28c.158-.049.348-.221.419-.525v-.001c.092-.398.146-1.065.174-1.68a28 28 0 0 0 .026-.992V5.92l-.004-.23c-.003-.195-.01-.464-.023-.761-.028-.615-.081-1.283-.173-1.682-.062-.266-.215-.432-.359-.502l-.061-.023V2.72c-.117-.036-.398-.08-.827-.116a28 28 0 0 0-1.334-.073 56 56 0 0 0-1.58-.031H5.86a61 61 0 0 0-1.58.031c-.455.016-.929.04-1.334.073-.429.037-.71.08-.827.116l-.444-1.433c.293-.09.729-.142 1.145-.178.44-.037.942-.06 1.41-.077.468-.016.91-.024 1.234-.028L5.854 1 5.96 1h.078zM1.7 3.247c-.092.398-.146 1.065-.174 1.68a28 28 0 0 0-.026.992v.162a24 24 0 0 0 .026.992c.028.615.082 1.282.174 1.68l-1.46.339C.111 8.543.055 7.749.027 7.14c-.014-.315-.02-.6-.024-.804L0 6.093v-.186l.004-.243c.003-.205.01-.489.024-.804.028-.61.084-1.403.211-1.952zm3.34 1.536a.25.25 0 0 1 .375-.217l2.107 1.217a.25.25 0 0 1 0 .434L5.415 7.434a.25.25 0 0 1-.375-.217zM2.12 2.721c-.16.049-.35.221-.42.525v.001l-.73-.17-.73-.169c.17-.74.69-1.39 1.436-1.62z"/></svg>
